!!!COM: Schubert, Franz
!!!CNT: Deutscher
!!!TXO: Deutsch
!!!OTL: "Morgengruss"
!!!OPR: Die schoene Muellerin
!!!LYR: Mu2ller, Wilhelm
!!!OPS: Opus 25
!!!ONM: No. 8
!!!ODT: 1823/
!!NB: Vocal melody only encoded.
**kern	**silbe
*clefG2	*
*k[]	*
*M3/4	*
*MM[massig]	*
=4	=4
2r	.
{8g	{Gu-
8g	-ten
=5	=5
4.g	Mor-
8ee	-gen,
8dd	scho2-
8cc	-ne
=6	=6
8.g	Mu2l-
32b	-le-
32a	|
4g}	-rin!}
8r	.
{8g	{wo
=7	=7
4.g	steckst
8ee	du
16ff	gleich
16ee	|
16dd	das
16cc	|
=8	=8
8.a	Ko2pf-
16cc#	-chen
4.dd}	hin},
{8ff	{als
=9	=9
4.ff	wa2r'
8b	dir
24dd	was
24cc	|
12b	|
12cc	ge-
=10	=10
4ee	-sche-
4dd}	-hen?}
4r	.
=11	=11
4r	.
4r	.
8r	.
{8dd	{Ver-
=12	=12
4.dd	-driesst
8dd	dich
8dd	denn
8dd	mein
=13	=13
8.cc#	Gruss
16ee	so
4.ee}	schwer?}
{16a	{ver-
16b	|
=14	=14
4.ccn	-sto2rt
8cc	dich
8cc	denn
8cc	mein
=15	=15
8.b	Blick
16dd	so
4.dd}	sehr?}
{8g	{So
=16	=16
4.ee	muss
8ee	ich
12dd	wie-
12cc	|
12b	-der
=17	=17
4cc	ge-
4g}	-hen,}
8r	.
{8g	{so
=18	=18
4.ee	muss
8ee	ich
12dd	wie-
12cc	|
12b	-der
=19	=19
4cc	ge-
4g}	-hen,}
{12ff	{wie-
12ee	|
12dd	-der
=20	=20
2.ff	ge-
=21	=21
4ee}	-hen.}
4r	.
4r	.
*-	*-
